archdroid-icon-theme/Archdroid-Purple/devices/scalable/scanner.svg

<svg xmlns="http://www.w3.org/2000/svg" fill="#9C27B0" viewBox="0 0 48 48"><path d="m20 2v4h-10c-2.21 0-4 1.79-4 4v28c0 2.21 1.79 4 4 4h10v4h4v-4-4-2-5.564-20.436-4-4h-4m8 4v4h10v26 2h-10v4h10c2.21 0 4-1.79 4-4v-28c0-2.21-1.79-4-4-4h-10m10 30l-9-12-1 1.287v10.713h10m-28-26h10v20.605l-3-3.605-7 9h10v2h-10v-2-26"/></svg>

<?xml version="1.0" encoding="UTF-8" standalone="no"?>
<svg
   xmlns:dc="http://purl.org/dc/elements/1.1/"
   xmlns:cc="http://creativecommons.org/ns#"
   xmlns:rdf="http://www.w3.org/1999/02/22-rdf-syntax-ns#"
   xmlns:svg="http://www.w3.org/2000/svg"
   xmlns="http://www.w3.org/2000/svg"
   xmlns:sodipodi="http://sodipodi.sourceforge.net/DTD/sodipodi-0.dtd"
   xmlns:inkscape="http://www.inkscape.org/namespaces/inkscape"
   fill="#9C27B0"
   width="48"
   height="48"
   viewBox="0 0 48 48"
   id="svg2"
   version="1.1"
   inkscape:version="0.91 r13725"
   sodipodi:docname="scanner.svg">
  <metadata
     id="metadata10">
    <rdf:RDF>
      <cc:Work
         rdf:about="">
        <dc:format>image/svg+xml</dc:format>
        <dc:type
           rdf:resource="http://purl.org/dc/dcmitype/StillImage" />
      </cc:Work>
    </rdf:RDF>
  </metadata>
  <defs
     id="defs8" />
  <sodipodi:namedview
     pagecolor="#ffffff"
     bordercolor="#666666"
     borderopacity="1"
     objecttolerance="10"
     gridtolerance="10"
     guidetolerance="10"
     inkscape:pageopacity="0"
     inkscape:pageshadow="2"
     inkscape:window-width="1366"
     inkscape:window-height="713"
     id="namedview6"
     showgrid="false"
     inkscape:snap-bbox="true"
     inkscape:bbox-nodes="true"
     inkscape:snap-smooth-nodes="true"
     inkscape:object-nodes="true"
     inkscape:zoom="3.795750125125504"
     inkscape:cx="-29.85056202682895"
     inkscape:cy="-7.362701983751741"
     inkscape:window-x="0"
     inkscape:window-y="30"
     inkscape:window-maximized="1"
     inkscape:current-layer="svg2" />
  <path
     style="fill:#9C27B0"
     d="M 20 2 L 20 6 L 10 6 C 7.79 6 6 7.789999999999999 6 10 L 6 38 C 6 40.21 7.789999999999999 42 10 42 L 20 42 L 20 46 L 24 46 L 24 42 L 24 38 L 24 36 L 24 30.435546875 L 24 10 L 24 6 L 24 2 L 20 2 z M 28 6 L 28 10 L 38 10 L 38 36 L 38 38 L 28 38 L 28 42 L 38 42 C 40.21 42 42 40.21 42 38 L 42 10 C 42 7.79 40.21 6 38 6 L 28 6 z M 38 36 L 29 24 L 28 25.287109375 L 28 36 L 38 36 z M 10 10 L 20 10 L 20 30.60546875 L 17 27 L 10 36 L 20 36 L 20 38 L 10 38 L 10 36 L 10 10 z "
     id="path4164" />
</svg>
